X: 122
M:2/4
L:1/16
K:D
u((3EFG)|\
|:(fg)|\
{b}a^gaf dfaf | =gfge cefg | {b}a^gaf dfaf | edcB Aceg |
{b}a^gaf dfaf | =gfge cefg | afge fdec | dBAF D2 H:|


